material/.icons/material/jump-rope.svg

<svg xmlns="http://www.w3.org/2000/svg" viewBox="0 0 24 24"><path d="M21 4.5v6c0 .7-.5 1.4-1.2 1.5v5.3c0 1.3-.8 3.8-3.8 3.8h-1.5c.4-.4.8-.9 1-1.5h.5c2.1 0 2.2-1.9 2.2-2.2V12c-.7-.1-1.2-.7-1.2-1.5v-6c0-.8.7-1.5 1.5-1.5h1c.8 0 1.5.7 1.5 1.5m-6.2 13.7c0 1.5-1.2 2.8-2.8 2.8H8c-3 0-3.8-2.5-3.8-3.8V12c-.7-.1-1.2-.8-1.2-1.5v-6C3 3.7 3.7 3 4.5 3h1C6.3 3 7 3.7 7 4.5v6c0 .7-.5 1.4-1.2 1.5v5.3c0 .4.1 2.2 2.2 2.2h1.6c-.2-.4-.3-.8-.3-1.2v-10c0-1.5 1.2-2.8 2.8-2.8s2.7 1.2 2.7 2.8m-1.6-.1c0-.6-.5-1.2-1.2-1.2s-1.2.6-1.2 1.2v10c0 .7.6 1.2 1.2 1.2s1.2-.6 1.2-1.2v-10z"/></svg>

<?xml version="1.0" encoding="UTF-8"?><!DOCTYPE svg PUBLIC "-//W3C//DTD SVG 1.1//EN" "http://www.w3.org/Graphics/SVG/1.1/DTD/svg11.dtd"><svg xmlns="http://www.w3.org/2000/svg" xmlns:xlink="http://www.w3.org/1999/xlink" version="1.1" id="mdi-jump-rope" width="24" height="24" viewBox="0 0 24 24"><path d="M21 4.5V10.5C21 11.2 20.5 11.9 19.8 12V17.3C19.8 18.6 19 21.1 16 21.1H14.5C14.9 20.7 15.3 20.2 15.5 19.6H16C18.1 19.6 18.2 17.7 18.2 17.4V12C17.5 11.9 17 11.3 17 10.5V4.5C17 3.7 17.7 3 18.5 3H19.5C20.3 3 21 3.7 21 4.5M14.8 18.2C14.8 19.7 13.6 21 12 21H8C5 21 4.2 18.5 4.2 17.2V12C3.5 11.9 3 11.2 3 10.5V4.5C3 3.7 3.7 3 4.5 3H5.5C6.3 3 7 3.7 7 4.5V10.5C7 11.2 6.5 11.9 5.8 12V17.3C5.8 17.7 5.9 19.5 8 19.5H9.6C9.4 19.1 9.3 18.7 9.3 18.3V8.3C9.3 6.8 10.5 5.5 12.1 5.5S14.8 6.7 14.8 8.3M13.2 8.2C13.2 7.6 12.7 7 12 7S10.8 7.6 10.8 8.2V18.2C10.8 18.9 11.4 19.4 12 19.4S13.2 18.8 13.2 18.2V8.2Z" /></svg>
